X:023
T:Castle of Gold (hornpipe) 
B:CRE3.223	(CaisleÃÂÃÂÃÂÃÂ¡n an ÃÂÃÂÃÂÃÂ³ir)
F:file ID: cre.3/023castle_g
C:Junior Crehan
R:hornpipe
L:1/8
Q:150
M:C
K:Gm
(3ABc|dGGF G2Ac|dcd=e f2ga|gfdc AdcA|G3=E FDDC|
DGGF G2Ac|dcd=e f2ga|gfdc AdcA|G2GF G2:|
(3ABc|dgga b2ag|gfd=e f2ga|gfdc AdcA|G3=E FDDC|
DGGF G2Ac|dcd=e f2ga|gfdc AdcA|G2GF G2:|

%%%

